X:1
T:Cabo San Lucas, 87.87 D
T:E. M. Douthit, 1895
T:Cabo San Lucas, 87.87 D
T:Public Domain
C:E. M. Douthit, 1895
Z:Public Domain
%%score ( 1 2 ) ( 3 4 )
L:1/8
M:3/4
K:Bb
V:1 treble 
V:2 treble 
V:3 bass 
V:4 bass 
V:1
 [B,D]>[CE] | [DF]3 [DB] [CA]>[Ec] | [DB]2 [DF]2 [EA]>[DB] | [Fc]3 [F=B] [Fc]>[Fc] | %4
 [Fd]4 [Fd]>[Fd] | [Ge]3 [Fd] [Fc]>[FB] | [EG]2 [Ec]2 [EB]>[EG] | F3 [Ge] [Fd]>[Ec] | %8
 [DB]4 [Fc]>[Fc] | [Fc]3 [FA] [FB]>[Fc] | [Fd]2 [DB]2 [DB]>[DB] | [=EB]3 [EG] [EA]>[EB] | %12
 [Fc]4 [Fd]>[Fd] | [Ge]3 [Fd] [Fc]>[FB] | [EG]2 [Ec]2 [EB]>[EG] | F3 [Ge] [Fd]>[Ec] | [DB]4 |] %17
V:2
 x2 | x6 | x6 | x6 | x6 | x6 | x6 | F3 x3 | x6 | x6 | x6 | x6 | x6 | x6 | x6 | F3 x3 | x4 |] %17
V:3
 [B,,F,]>[B,,F,] | [B,,B,]3 [B,,F,] F,>F, | [B,,F,]2 [B,,B,]2 [F,C]>[F,B,] | %3
 [F,A,]3 [F,^G,] [F,A,]>[F,A,] | [B,,B,]4 [B,,B,]>[B,,B,] | [B,,B,]3 [B,,B,] [C,A,]>[D,B,] | %6
 [E,B,]2 [E,G,]2 [E,G,]>[E,B,] | [D,B,]3 [E,B,] [F,B,]>[F,A,] | [B,,B,]4 [F,A,]>[F,A,] | %9
 [F,A,]3 [E,C] [D,B,]>[F,A,] | B,2 [B,,F,]2 [B,,F,]>[B,,B,] | [C,G,]3 [C,C] [C,C]>[C,G,] | %12
 [F,A,]4 [B,,B,]>[B,,B,] | [B,,B,]3 [B,,B,] [C,A,]>[D,B,] | [E,B,]2 [E,G,]2 [E,G,]>[E,B,] | %15
 [D,B,]3 [E,B,] [F,B,]>[F,A,] | [B,,B,]4 |] %17
V:4
 x2 | x4 F,>F, | x6 | x6 | x6 | x6 | x6 | x6 | x6 | x6 | B,2 x4 | x6 | x6 | x6 | x6 | x6 | x4 |] %17

